!!! OTL: Berkowitz53
!!! Chapter: 1
!!! Section: I
!!! Page: 16
!!! Mode: 
!!! Encoder: DJB
**kern
*staff1
*I"Piano
=1-
*clefC3
*k[b-e-a-d-]
*A-:
*M3/4
4a-\
4e-\
4c\
=2
8d-\L
8e-\J
4.f\
8e-\
=3
4d-\
8c/L
8B-/J
8A-/L
8G/J
=4
8A-/L
8c/J
4.e-\
8e-\
=5
4a-\
4e-\
4c\
=6
8d-\L
8c\J
8d-\L
8e-\J
4f\
=7
8e-\L
8f\J
8e-\L
8c\J
8d-\L
8B-\J
=8
2B-/
4A-/
==
*-
